X:2305
T:Waverly Variations
S:Marcel Robidas
R:Canadian Two-Step
M:2/4
L:1/8
Z:<http://tunes.nhcountrydance.com>.
K:D
"A5,6"f2-f/2e/2f/2g/2 | fd ed || "A7,8"c/2c/2e/2c/2 c/2e/2c/2c/2 | e/2c/2e/2c/2 EF||
"B5,6"c/2c/2e/2c/2 c/2e/2c/2c/2 | e/2c/2e/2c/2 AG || "C5"f3 a/2f/2 ||
"Ending"e z e>f | gg fe | dd/2B/2 A/2G/2F/2E/2 | D z D2 |]
